polaris-icons/icons/new-icons/WandMajor.svg

<svg width="20" height="20" viewBox="0 0 20 20" fill="none" xmlns="http://www.w3.org/2000/svg">
<path fill-rule="evenodd" clip-rule="evenodd" d="M14.7374 3.67663C14.054 2.99321 12.946 2.99321 12.2626 3.67663L3.67678 12.2624C2.99336 12.9458 2.99336 14.0539 3.67678 14.7373L5.26256 16.3231C5.94598 17.0065 7.05402 17.0065 7.73744 16.3231L14.5212 9.53926L14.5303 9.53033L14.5393 9.52125L16.3232 7.73729C17.0066 7.05387 17.0066 5.94583 16.3232 5.26241L14.7374 3.67663ZM13.9999 7.93926L15.2626 6.67662C15.3602 6.57899 15.3602 6.4207 15.2626 6.32307L13.6768 4.73729C13.5791 4.63965 13.4209 4.63965 13.3232 4.73729L12.0606 5.99993L13.9999 7.93926ZM10.9999 7.06059L4.73744 13.3231C4.63981 13.4207 4.63981 13.579 4.73744 13.6766L6.32322 15.2624C6.42086 15.36 6.57915 15.36 6.67678 15.2624L12.9393 8.99993L10.9999 7.06059Z" fill="#4A4A4A"/>
<path d="M14.25 12C14.6642 12 15 12.3358 15 12.75V13.5H15.75C16.1642 13.5 16.5 13.8358 16.5 14.25C16.5 14.6642 16.1642 15 15.75 15H15V15.75C15 16.1642 14.6642 16.5 14.25 16.5C13.8358 16.5 13.5 16.1642 13.5 15.75V15H12.75C12.3358 15 12 14.6642 12 14.25C12 13.8358 12.3358 13.5 12.75 13.5H13.5V12.75C13.5 12.3358 13.8358 12 14.25 12Z" fill="#4A4A4A"/>
<path d="M6.5 4.25C6.5 3.83579 6.16421 3.5 5.75 3.5C5.33579 3.5 5 3.83579 5 4.25V5H4.25C3.83579 5 3.5 5.33579 3.5 5.75C3.5 6.16421 3.83579 6.5 4.25 6.5H5V7.25C5 7.66421 5.33579 8 5.75 8C6.16421 8 6.5 7.66421 6.5 7.25V6.5H7.25C7.66421 6.5 8 6.16421 8 5.75C8 5.33579 7.66421 5 7.25 5H6.5V4.25Z" fill="#4A4A4A"/>
</svg>

<svg viewBox="0 0 20 20" xmlns="http://www.w3.org/2000/svg"><path fill-rule="evenodd" d="M14.737 3.677a1.75 1.75 0 0 0-2.474 0l-8.586 8.585a1.75 1.75 0 0 0 0 2.475l1.586 1.586a1.75 1.75 0 0 0 2.474 0l6.784-6.784.01-.009.008-.009 1.784-1.784a1.75 1.75 0 0 0 0-2.475l-1.586-1.585Zm-.737 4.262 1.263-1.262a.25.25 0 0 0 0-.354l-1.586-1.586a.25.25 0 0 0-.354 0l-1.262 1.263 1.939 1.94Zm-3-.878-6.263 6.262a.25.25 0 0 0 0 .354l1.586 1.585a.25.25 0 0 0 .354 0l6.262-6.262-1.94-1.94Z" fill="#5C5F62"/><path d="M14.25 12a.75.75 0 0 1 .75.75v.75h.75a.75.75 0 0 1 0 1.5h-.75v.75a.75.75 0 0 1-1.5 0v-.75h-.75a.75.75 0 0 1 0-1.5h.75v-.75a.75.75 0 0 1 .75-.75Z" fill="#5C5F62"/><path d="M6.5 4.25a.75.75 0 0 0-1.5 0v.75h-.75a.75.75 0 0 0 0 1.5h.75v.75a.75.75 0 0 0 1.5 0v-.75h.75a.75.75 0 0 0 0-1.5h-.75v-.75Z" fill="#5C5F62"/></svg>
